packages/bezier-icons/icons/space-horizontal.svg

<svg width="24" height="24" viewBox="0 0 24 24" fill="none" xmlns="http://www.w3.org/2000/svg">
<path fill-rule="evenodd" clip-rule="evenodd" d="M2.70712 12.7071C2.3166 12.3166 2.3166 11.6834 2.70712 11.2929L5.63433 8.36569C6.1383 7.86172 7.00001 8.21865 7.00001 8.93137V11H17V8.93137C17 8.21865 17.8617 7.86172 18.3657 8.36569L21.2929 11.2929C21.6834 11.6834 21.6834 12.3166 21.2929 12.7071L18.3657 15.6343C17.8617 16.1383 17 15.7814 17 15.0686V13H7.00001V15.0686C7.00001 15.7814 6.1383 16.1383 5.63433 15.6343L2.70712 12.7071Z" fill="#313234"/>
</svg>

<svg xmlns="http://www.w3.org/2000/svg" width="24" height="24" fill="none" viewBox="0 0 24 24"><path fill="#313234" fill-rule="evenodd" d="M2.707 12.707a1 1 0 0 1 0-1.414l2.927-2.927A.8.8 0 0 1 7 8.93V11h10V8.931a.8.8 0 0 1 1.366-.565l2.927 2.927a1 1 0 0 1 0 1.414l-2.927 2.927A.8.8 0 0 1 17 15.07V13H7v2.069a.8.8 0 0 1-1.366.565z" clip-rule="evenodd"/></svg>
